actions/symbolic/window-pop-out-symbolic.svg

<?xml version="1.0" encoding="UTF-8" standalone="no"?>
<svg
   height="16"
   width="16"
   version="1.1"
   id="svg13825"
   sodipodi:docname="window-pop-out-symbolic.svg"
   inkscape:version="1.2.2 (b0a8486541, 2022-12-01)"
   xmlns:inkscape="http://www.inkscape.org/namespaces/inkscape"
   xmlns:sodipodi="http://sodipodi.sourceforge.net/DTD/sodipodi-0.dtd"
   xmlns="http://www.w3.org/2000/svg"
   xmlns:svg="http://www.w3.org/2000/svg">
  <defs
     id="defs13829" />
  <sodipodi:namedview
     id="namedview13827"
     pagecolor="#ffffff"
     bordercolor="#000000"
     borderopacity="0.25"
     inkscape:showpageshadow="2"
     inkscape:pageopacity="0.0"
     inkscape:pagecheckerboard="0"
     inkscape:deskcolor="#d1d1d1"
     showgrid="false"
     inkscape:zoom="50.25"
     inkscape:cx="7.1144279"
     inkscape:cy="8.119403"
     inkscape:window-width="1278"
     inkscape:window-height="1005"
     inkscape:window-x="537"
     inkscape:window-y="207"
     inkscape:window-maximized="0"
     inkscape:current-layer="svg13825" />
  <path
     color="#bebebe"
     d="m 10,1 2.25,2.223 -1.714,1.714 -0.027,0.027 c -0.38,0.42 -0.379,1.068 0.027,1.473 a 1.07,1.07 0 0 0 1.473,0.054 L 12.223,6.277 13.777,4.75 16,7 V 1 Z"
     fill="#666666"
     overflow="visible"
     style="marker:none;fill:#555761"
     id="path13821" />
  <path
     style="color:#000000;fill:#555761;stroke-linejoin:round;-inkscape-stroke:none;paint-order:markers fill stroke"
     d="M 2,7 C 1.4546502,7 1,7.4546502 1,8 v 6 c 0,0.54535 0.4546502,1 1,1 h 7 c 0.5453498,0 1,-0.45465 1,-1 V 8 C 10,7.4546502 9.5453498,7 9,7 Z m 0,2 h 7 v 5 H 2 Z"
     id="rect14012"
     sodipodi:nodetypes="sssssssssccccc" />
</svg>

<svg
        xmlns='http://www.w3.org/2000/svg'
        xmlns:svg='http://www.w3.org/2000/svg'
        id='svg13825'
        width='16'
        height='16'>
  <path
          id='path13821'
          color='rgb(190,190,190)'
          fill='url(#gpa:foreground) #555761'
          fill-opacity='1'
          fill-rule='nonzero'
          marker-start='none'
          marker-mid='none'
          marker-end='none'
          overflow='visible'
          d='M 10 1 L 12.25 3.223 L 10.536 4.937 L 10.509 4.964 C 10.129 5.384, 10.13 6.032, 10.536 6.437 A 1.07 1.07 0 0 0 12.009 6.491 L 12.223 6.277 L 13.777 4.75 L 16 7 L 16 1 Z'
          class="foreground">
  </path>
  <path
          id='rect14012'
          color='rgb(0,0,0)'
          fill='url(#gpa:foreground) #555761'
          fill-opacity='1'
          fill-rule='nonzero'
          stroke-linejoin='round'
          paint-order='markers fill stroke'
          d='M 2 7 C 1.45465 7, 1 7.45465, 1 8 L 1 14 C 1 14.5454, 1.45465 15, 2 15 L 9 15 C 9.54535 15, 10 14.5454, 10 14 L 10 8 C 10 7.45465, 9.54535 7, 9 7 Z M 2 9 L 9 9 L 9 14 L 2 14 Z'
          class="foreground">
  </path>
</svg>
